Newaita-dark/apps/16/texstudio.svg

<svg height="16" viewBox="0 0 16 16" width="16" xmlns="http://www.w3.org/2000/svg" xmlns:xlink="http://www.w3.org/1999/xlink"><linearGradient id="a" gradientUnits="userSpaceOnUse" x1="7.93826" x2="7.93826" y1="14.0169685" y2="14.67849050002"><stop offset="0" stop-opacity=".27451"/><stop offset="1" stop-opacity="0"/></linearGradient><linearGradient id="b"><stop offset="0" stop-opacity=".313726"/><stop offset=".222222" stop-opacity=".27451"/><stop offset="1" stop-opacity="0"/></linearGradient><radialGradient id="c" cx="450.908936" cy="189.579361" gradientTransform="matrix(.00000009 -.0390662 -.0703192 -.00000005 24.411523 31.797666)" gradientUnits="userSpaceOnUse" r="21.166656" xlink:href="#b"/><radialGradient id="d" cx="450.908936" cy="189.579361" gradientTransform="matrix(-.00000009 .0390662 .0703192 .00000005 -8.865766 -3.763739)" gradientUnits="userSpaceOnUse" r="21.166656" xlink:href="#b"/><radialGradient id="e" cx="450.908936" cy="189.579361" gradientTransform="matrix(-.00000009 -.0390662 .0703192 -.00000005 -8.865766 31.797666)" gradientUnits="userSpaceOnUse" r="21.166656" xlink:href="#b"/><radialGradient id="f" cx="450.908936" cy="189.579361" gradientTransform="matrix(.00000009 .0390662 -.0703192 .00000005 24.411522 -3.76374)" gradientUnits="userSpaceOnUse" r="21.166656" xlink:href="#b"/><linearGradient id="g" gradientUnits="userSpaceOnUse" x1="7.7728788" x2="7.7728788" y1="14.01696600048" y2="1.4480552201"><stop offset="0" stop-color="#616161"/><stop offset="1" stop-color="#757575"/></linearGradient><linearGradient id="h"><stop offset="0" stop-color="#ffa726"/><stop offset="1" stop-color="#ffb74d"/></linearGradient><linearGradient id="i" gradientUnits="userSpaceOnUse" x1="7.7728788" x2="7.7728788" xlink:href="#h" y1="14.01696600048" y2="1.4480552201"/><linearGradient id="j" gradientTransform="matrix(.00584708 .00584708 -.00584708 .00584708 10.418788 .973997)" gradientUnits="userSpaceOnUse" x1="1157.781738" x2="614.728943" xlink:href="#h" y1="1072.898926" y2="504.996185"/><path d="m4.300781 14.015625h6.945313v.664063h-6.945313zm0 0" fill="url(#a)"/><path d="m11.246094 14.015625h1.324218v-.660156h-1.324218zm0 0" fill="url(#c)"/><path d="m4.300781 14.015625h-1.324219v.664063h1.324219zm0 0" fill="url(#d)"/><path d="m4.300781 14.015625h-1.324219v-.660156h1.324219zm0 0" fill="url(#e)"/><path d="m11.246094 14.015625h1.324218v.664063h-1.324218zm0 0" fill="url(#f)"/><path d="m3.636719 1.449219c-.363281 0-.660157.292969-.660157.660156v11.246094c0 .367187.296876.660156.660157.660156h8.269531c.367188 0 .664062-.292969.664062-.660156v-8.929688l-2.976562-2.976562zm6.617187 0 2.316406 2.3125v-1.652344c0-.367187-.296874-.660156-.664062-.660156zm0 0" fill="url(#g)"/><path d="m10.253906 1.449219 2.316406 2.3125v-1.652344c0-.367187-.296874-.660156-.664062-.660156zm0 0" fill="url(#i)"/><path d="m3.636719 1.449219c-.363281 0-.660157.292969-.660157.660156v.164063c0-.363282.296876-.660157.660157-.660157h5.957031l2.976562 2.976563v-.164063l-2.976562-2.976562zm6.617187 0 .164063.164062h1.488281c.367188 0 .664062.296875.664062.660157v-.164063c0-.367187-.296874-.660156-.664062-.660156zm0 0" fill="#fff" fill-opacity=".392157"/><path d="m10.253906 1.449219 2.316406 2.3125v-.242188l-2.070312-2.070312zm-7.277344 11.660156v.246094c0 .367187.296876.660156.660157.660156h8.269531c.367188 0 .664062-.292969.664062-.660156v-.246094c0 .367187-.296874.664063-.664062.664063h-8.269531c-.363281 0-.660157-.296876-.660157-.664063zm0 0" fill-opacity=".235294"/><path d="m3.636719 1.402344c-.390625 0-.707031.316406-.707031.707031v11.246094c0 .390625.316406.707031.707031.707031h8.269531c.394531 0 .710938-.316406.710938-.707031v-8.929688c0-.011719-.007813-.023437-.015626-.035156l-2.976562-2.976563c-.007812-.007812-.019531-.011718-.03125-.011718zm6.617187 0c-.019531 0-.035156.011718-.042968.027344-.007813.019531-.003907.039062.007812.050781l2.316406 2.316406c.015625.011719.035156.015625.050782.011719.019531-.007813.03125-.027344.03125-.046875v-1.652344c0-.390625-.316407-.707031-.710938-.707031zm-6.617187.09375h5.9375l2.949219 2.949218v8.910157c0 .339843-.273438.613281-.617188.613281h-8.269531c-.339844 0-.613281-.273438-.613281-.613281v-11.246094c0-.339844.273437-.613281.613281-.613281zm6.730469 0h1.539062c.34375 0 .617188.273437.617188.613281v1.539063zm0 0" fill="#212121"/><path d="m12.433594 8.585938c-.167969 0-.335938.066406-.464844.195312l-2.339844 2.339844-.351562.347656 1.636718 1.636719.351563-.347657 2.339844-2.339843c.257812-.257813.257812-.675781 0-.9375l-.703125-.699219c-.128906-.128906-.296875-.195312-.46875-.195312zm-3.507813 3.234374c-.035156.039063-.066406.085938-.082031.144532l-.46875 1.636718c-.070312.25.160156.480469.410156.410157l1.636719-.46875c.054687-.015625.105469-.046875.140625-.085938zm0 0" fill="url(#j)"/><path d="m12.417969 8.597656c-.167969 0-.335938.066406-.46875.195313l-2.6875 2.6875.089843.089843.261719-.257812 2.335938-2.339844c.011719-.007812.019531-.015625.027343-.023437.007813-.007813.015626-.015625.023438-.023438.015625-.011719.027344-.019531.042969-.03125.011719-.007812.027343-.015625.039062-.023437.019531-.011719.039063-.023438.058594-.03125.066406-.03125.140625-.050782.214844-.058594.019531-.003906.042969-.003906.0625-.003906.023437 0 .042969 0 .0625.003906.074219.007812.148437.027344.214843.058594.019532.007812.039063.019531.058594.03125.015625.007812.027344.015625.042969.023437.011719.011719.027344.019531.039063.03125.007812.007813.015624.015625.027343.023438.007813.007812.015625.015625.023438.023437l.703125.699219c.003906.007813.011718.015625.015625.019531.003906.003906.003906.003906.003906.007813.003906.003906.007813.007812.011719.011719.003906.003906.003906.003906.007812.007812s.007813.007812.011719.015625c0 0 .003906 0 .003906.003906.003907.003907.007813.011719.015625.019531v.003907c.003906.003906.007813.011719.011719.015625s.003906.003906.003906.007812c.003907.003906.007813.011719.011719.015625 0 0 0 .003907.003906.003907.003906.007812.007813.015624.011719.023437s.007813.011719.011719.019531v.007813c.003906.003906.007812.011719.011718.015625v.003906c.003907.007812.007813.015625.011719.023438 0 .007812.003907.015624.007813.023437v.003906c.003906.007813.003906.015625.007812.023438.003906.007812.003906.015625.007813.023437.003906.019532.007812.035156.011719.050782v.003906c0 .007812 0 .015625.003906.023437.027344-.199219-.035156-.40625-.1875-.558593l-.703125-.699219c-.128907-.128907-.300781-.195313-.46875-.195313zm-3.507813 3.234375c-.039062.039063-.066406.085938-.082031.144531l-.46875 1.636719c-.019531.0625-.015625.125 0 .179688l.46875-1.636719c.015625-.058594.042969-.105469.082031-.144531l1.527344 1.53125c.042969-.019531.082031-.042969.109375-.074219zm0 0" fill="#d7d7d7" fill-opacity=".588235" fill-rule="evenodd"/><path d="m13.792969 9.867188c-.015625.140624-.078125.277343-.1875.386718l-2.339844 2.335938-.351563.351562-1.554687-1.554687-.082031.082031 1.636718 1.636719.351563-.347657 2.339844-2.339843c.148437-.152344.214843-.355469.1875-.550781zm-3.328125 3.492187c-.011719.007813-.027344.011719-.042969.015625l-1.636719.46875c-.191406.054688-.367187-.0625-.414062-.234375-.0625.246094.167968.472656.414062.402344l1.636719-.46875c.054687-.015625.105469-.046875.140625-.085938zm0 0" fill-opacity=".235294"/><g fill="none" stroke="#212121" stroke-linecap="round" stroke-linejoin="round" stroke-width="3" transform="matrix(.031253 0 0 .031253 0 6.719392)"><path d="m412.835576 65.973168c-8.249212-8.3742-21.622935-8.3742-29.872147 0l-74.867851 74.867851-11.248925 11.123938 52.369998 52.369999 11.248926-11.123938 74.867851-74.867851c8.249212-8.249212 8.249212-21.622935 0-29.997135zm0 0"/><path d="m285.597727 163.213882c-1.124893 1.249881-2.124797 2.749738-2.62475 4.624559l-14.998567 52.369999c-2.249785 7.999236 5.12451 15.373532 13.123746 13.123746l52.369999-14.998567c1.749833-.499953 3.374678-1.499857 4.499571-2.749738zm0 0"/></g></svg>

<?xml version="1.0" encoding="UTF-8"?>
<svg xmlns="http://www.w3.org/2000/svg" xmlns:xlink="http://www.w3.org/1999/xlink" width="16px" height="16px" viewBox="0 0 16 16" version="1.1">
<defs>
<linearGradient id="linear0" gradientUnits="userSpaceOnUse" x1="254" y1="233.5" x2="254" y2="254.666672" gradientTransform="matrix(0.031253,0,0,0.031253,-0.00000190753,6.719393)">
<stop offset="0" style="stop-color:rgb(0%,0%,0%);stop-opacity:0.27451;"/>
<stop offset="1" style="stop-color:rgb(0%,0%,0%);stop-opacity:0;"/>
</linearGradient>
<radialGradient id="radial0" gradientUnits="userSpaceOnUse" cx="450.908936" cy="189.579361" fx="450.908936" fy="189.579361" r="21.166656" gradientTransform="matrix(0.0000000870852,-0.0390662,-0.0703192,-0.0000000507693,24.411523,31.797666)">
<stop offset="0" style="stop-color:rgb(0%,0%,0%);stop-opacity:0.313726;"/>
<stop offset="0.222222" style="stop-color:rgb(0%,0%,0%);stop-opacity:0.27451;"/>
<stop offset="1" style="stop-color:rgb(0%,0%,0%);stop-opacity:0;"/>
</radialGradient>
<radialGradient id="radial1" gradientUnits="userSpaceOnUse" cx="450.908936" cy="189.579361" fx="450.908936" fy="189.579361" r="21.166656" gradientTransform="matrix(-0.0000000870852,0.0390662,0.0703192,0.0000000507693,-8.865766,-3.763739)">
<stop offset="0" style="stop-color:rgb(0%,0%,0%);stop-opacity:0.313726;"/>
<stop offset="0.222222" style="stop-color:rgb(0%,0%,0%);stop-opacity:0.27451;"/>
<stop offset="1" style="stop-color:rgb(0%,0%,0%);stop-opacity:0;"/>
</radialGradient>
<radialGradient id="radial2" gradientUnits="userSpaceOnUse" cx="450.908936" cy="189.579361" fx="450.908936" fy="189.579361" r="21.166656" gradientTransform="matrix(-0.0000000870852,-0.0390662,0.0703192,-0.0000000507693,-8.865766,31.797666)">
<stop offset="0" style="stop-color:rgb(0%,0%,0%);stop-opacity:0.313726;"/>
<stop offset="0.222222" style="stop-color:rgb(0%,0%,0%);stop-opacity:0.27451;"/>
<stop offset="1" style="stop-color:rgb(0%,0%,0%);stop-opacity:0;"/>
</radialGradient>
<radialGradient id="radial3" gradientUnits="userSpaceOnUse" cx="450.908936" cy="189.579361" fx="450.908936" fy="189.579361" r="21.166656" gradientTransform="matrix(0.0000000870852,0.0390662,-0.0703192,0.0000000507693,24.411522,-3.76374)">
<stop offset="0" style="stop-color:rgb(0%,0%,0%);stop-opacity:0.313726;"/>
<stop offset="0.222222" style="stop-color:rgb(0%,0%,0%);stop-opacity:0.27451;"/>
<stop offset="1" style="stop-color:rgb(0%,0%,0%);stop-opacity:0;"/>
</radialGradient>
<linearGradient id="linear1" gradientUnits="userSpaceOnUse" x1="940" y1="1695.118164" x2="940" y2="175.118118" gradientTransform="matrix(0.00826902,0,0,0.00826902,0,0)">
<stop offset="0" style="stop-color:rgb(38.039216%,38.039216%,38.039216%);stop-opacity:1;"/>
<stop offset="1" style="stop-color:rgb(45.882353%,45.882353%,45.882353%);stop-opacity:1;"/>
</linearGradient>
<linearGradient id="linear2" gradientUnits="userSpaceOnUse" x1="940" y1="1695.118164" x2="940" y2="175.118118" gradientTransform="matrix(0.00826902,0,0,0.00826902,0,0)">
<stop offset="0" style="stop-color:rgb(100%,65.490198%,14.901961%);stop-opacity:1;"/>
<stop offset="1" style="stop-color:rgb(100%,71.764708%,30.19608%);stop-opacity:1;"/>
</linearGradient>
<linearGradient id="linear3" gradientUnits="userSpaceOnUse" x1="1157.781738" y1="1072.898926" x2="614.728943" y2="504.996185" gradientTransform="matrix(0.00584708,0.00584708,-0.00584708,0.00584708,10.418788,0.973997)">
<stop offset="0" style="stop-color:rgb(100%,65.490198%,14.901961%);stop-opacity:1;"/>
<stop offset="1" style="stop-color:rgb(100%,71.764708%,30.19608%);stop-opacity:1;"/>
</linearGradient>
</defs>
<g id="surface1">
<path style=" stroke:none;fill-rule:nonzero;fill:url(#linear0);" d="M 4.300781 14.015625 L 11.246094 14.015625 L 11.246094 14.679688 L 4.300781 14.679688 Z M 4.300781 14.015625 "/>
<path style=" stroke:none;fill-rule:nonzero;fill:url(#radial0);" d="M 11.246094 14.015625 L 12.570312 14.015625 L 12.570312 13.355469 L 11.246094 13.355469 Z M 11.246094 14.015625 "/>
<path style=" stroke:none;fill-rule:nonzero;fill:url(#radial1);" d="M 4.300781 14.015625 L 2.976562 14.015625 L 2.976562 14.679688 L 4.300781 14.679688 Z M 4.300781 14.015625 "/>
<path style=" stroke:none;fill-rule:nonzero;fill:url(#radial2);" d="M 4.300781 14.015625 L 2.976562 14.015625 L 2.976562 13.355469 L 4.300781 13.355469 Z M 4.300781 14.015625 "/>
<path style=" stroke:none;fill-rule:nonzero;fill:url(#radial3);" d="M 11.246094 14.015625 L 12.570312 14.015625 L 12.570312 14.679688 L 11.246094 14.679688 Z M 11.246094 14.015625 "/>
<path style=" stroke:none;fill-rule:nonzero;fill:url(#linear1);" d="M 3.636719 1.449219 C 3.273438 1.449219 2.976562 1.742188 2.976562 2.109375 L 2.976562 13.355469 C 2.976562 13.722656 3.273438 14.015625 3.636719 14.015625 L 11.90625 14.015625 C 12.273438 14.015625 12.570312 13.722656 12.570312 13.355469 L 12.570312 4.425781 L 9.59375 1.449219 Z M 10.253906 1.449219 L 12.570312 3.761719 L 12.570312 2.109375 C 12.570312 1.742188 12.273438 1.449219 11.90625 1.449219 Z M 10.253906 1.449219 "/>
<path style=" stroke:none;fill-rule:nonzero;fill:url(#linear2);" d="M 10.253906 1.449219 L 12.570312 3.761719 L 12.570312 2.109375 C 12.570312 1.742188 12.273438 1.449219 11.90625 1.449219 Z M 10.253906 1.449219 "/>
<path style=" stroke:none;fill-rule:nonzero;fill:rgb(100%,100%,100%);fill-opacity:0.392157;" d="M 3.636719 1.449219 C 3.273438 1.449219 2.976562 1.742188 2.976562 2.109375 L 2.976562 2.273438 C 2.976562 1.910156 3.273438 1.613281 3.636719 1.613281 L 9.59375 1.613281 L 12.570312 4.589844 L 12.570312 4.425781 L 9.59375 1.449219 Z M 10.253906 1.449219 L 10.417969 1.613281 L 11.90625 1.613281 C 12.273438 1.613281 12.570312 1.910156 12.570312 2.273438 L 12.570312 2.109375 C 12.570312 1.742188 12.273438 1.449219 11.90625 1.449219 Z M 10.253906 1.449219 "/>
<path style=" stroke:none;fill-rule:nonzero;fill:rgb(0%,0%,0%);fill-opacity:0.235294;" d="M 10.253906 1.449219 L 12.570312 3.761719 L 12.570312 3.519531 L 10.5 1.449219 Z M 2.976562 13.109375 L 2.976562 13.355469 C 2.976562 13.722656 3.273438 14.015625 3.636719 14.015625 L 11.90625 14.015625 C 12.273438 14.015625 12.570312 13.722656 12.570312 13.355469 L 12.570312 13.109375 C 12.570312 13.476562 12.273438 13.773438 11.90625 13.773438 L 3.636719 13.773438 C 3.273438 13.773438 2.976562 13.476562 2.976562 13.109375 Z M 2.976562 13.109375 "/>
<path style=" stroke:none;fill-rule:nonzero;fill:rgb(12.941177%,12.941177%,12.941177%);fill-opacity:1;" d="M 3.636719 1.402344 C 3.246094 1.402344 2.929688 1.71875 2.929688 2.109375 L 2.929688 13.355469 C 2.929688 13.746094 3.246094 14.0625 3.636719 14.0625 L 11.90625 14.0625 C 12.300781 14.0625 12.617188 13.746094 12.617188 13.355469 L 12.617188 4.425781 C 12.617188 4.414062 12.609375 4.402344 12.601562 4.390625 L 9.625 1.414062 C 9.617188 1.40625 9.605469 1.402344 9.59375 1.402344 Z M 10.253906 1.402344 C 10.234375 1.402344 10.21875 1.414062 10.210938 1.429688 C 10.203125 1.449219 10.207031 1.46875 10.21875 1.480469 L 12.535156 3.796875 C 12.550781 3.808594 12.570312 3.8125 12.585938 3.808594 C 12.605469 3.800781 12.617188 3.78125 12.617188 3.761719 L 12.617188 2.109375 C 12.617188 1.71875 12.300781 1.402344 11.90625 1.402344 Z M 3.636719 1.496094 L 9.574219 1.496094 L 12.523438 4.445312 L 12.523438 13.355469 C 12.523438 13.695312 12.25 13.96875 11.90625 13.96875 L 3.636719 13.96875 C 3.296875 13.96875 3.023438 13.695312 3.023438 13.355469 L 3.023438 2.109375 C 3.023438 1.769531 3.296875 1.496094 3.636719 1.496094 Z M 10.367188 1.496094 L 11.90625 1.496094 C 12.25 1.496094 12.523438 1.769531 12.523438 2.109375 L 12.523438 3.648438 Z M 10.367188 1.496094 "/>
<path style=" stroke:none;fill-rule:nonzero;fill:url(#linear3);" d="M 12.433594 8.585938 C 12.265625 8.585938 12.097656 8.652344 11.96875 8.78125 L 9.628906 11.121094 L 9.277344 11.46875 L 10.914062 13.105469 L 11.265625 12.757812 L 13.605469 10.417969 C 13.863281 10.160156 13.863281 9.742188 13.605469 9.480469 L 12.902344 8.78125 C 12.773438 8.652344 12.605469 8.585938 12.433594 8.585938 Z M 8.925781 11.820312 C 8.890625 11.859375 8.859375 11.90625 8.84375 11.964844 L 8.375 13.601562 C 8.304688 13.851562 8.535156 14.082031 8.785156 14.011719 L 10.421875 13.542969 C 10.476562 13.527344 10.527344 13.496094 10.5625 13.457031 Z M 8.925781 11.820312 "/>
<path style=" stroke:none;fill-rule:evenodd;fill:rgb(84.313726%,84.313726%,84.313726%);fill-opacity:0.588235;" d="M 12.417969 8.597656 C 12.25 8.597656 12.082031 8.664062 11.949219 8.792969 L 9.261719 11.480469 L 9.351562 11.570312 L 9.613281 11.3125 L 11.949219 8.972656 C 11.960938 8.964844 11.96875 8.957031 11.976562 8.949219 C 11.984375 8.941406 11.992188 8.933594 12 8.925781 C 12.015625 8.914062 12.027344 8.90625 12.042969 8.894531 C 12.054688 8.886719 12.070312 8.878906 12.082031 8.871094 C 12.101562 8.859375 12.121094 8.847656 12.140625 8.839844 C 12.207031 8.808594 12.28125 8.789062 12.355469 8.78125 C 12.375 8.777344 12.398438 8.777344 12.417969 8.777344 C 12.441406 8.777344 12.460938 8.777344 12.480469 8.78125 C 12.554688 8.789062 12.628906 8.808594 12.695312 8.839844 C 12.714844 8.847656 12.734375 8.859375 12.753906 8.871094 C 12.769531 8.878906 12.78125 8.886719 12.796875 8.894531 C 12.808594 8.90625 12.824219 8.914062 12.835938 8.925781 C 12.84375 8.933594 12.851562 8.941406 12.863281 8.949219 C 12.871094 8.957031 12.878906 8.964844 12.886719 8.972656 L 13.589844 9.671875 C 13.59375 9.679688 13.601562 9.6875 13.605469 9.691406 C 13.609375 9.695312 13.609375 9.695312 13.609375 9.699219 C 13.613281 9.703125 13.617188 9.707031 13.621094 9.710938 C 13.625 9.714844 13.625 9.714844 13.628906 9.71875 C 13.632812 9.722656 13.636719 9.726562 13.640625 9.734375 C 13.640625 9.734375 13.644531 9.734375 13.644531 9.738281 C 13.648438 9.742188 13.652344 9.75 13.660156 9.757812 C 13.660156 9.757812 13.660156 9.761719 13.660156 9.761719 C 13.664062 9.765625 13.667969 9.773438 13.671875 9.777344 C 13.675781 9.78125 13.675781 9.78125 13.675781 9.785156 C 13.679688 9.789062 13.683594 9.796875 13.6875 9.800781 C 13.6875 9.800781 13.6875 9.804688 13.691406 9.804688 C 13.695312 9.8125 13.699219 9.820312 13.703125 9.828125 C 13.707031 9.835938 13.710938 9.839844 13.714844 9.847656 C 13.714844 9.851562 13.714844 9.851562 13.714844 9.855469 C 13.71875 9.859375 13.722656 9.867188 13.726562 9.871094 C 13.726562 9.875 13.726562 9.875 13.726562 9.875 C 13.730469 9.882812 13.734375 9.890625 13.738281 9.898438 C 13.738281 9.90625 13.742188 9.914062 13.746094 9.921875 C 13.746094 9.921875 13.746094 9.921875 13.746094 9.925781 C 13.75 9.933594 13.75 9.941406 13.753906 9.949219 C 13.757812 9.957031 13.757812 9.964844 13.761719 9.972656 C 13.765625 9.992188 13.769531 10.007812 13.773438 10.023438 C 13.773438 10.023438 13.773438 10.027344 13.773438 10.027344 C 13.773438 10.035156 13.773438 10.042969 13.777344 10.050781 C 13.804688 9.851562 13.742188 9.644531 13.589844 9.492188 L 12.886719 8.792969 C 12.757812 8.664062 12.585938 8.597656 12.417969 8.597656 Z M 8.910156 11.832031 C 8.871094 11.871094 8.84375 11.917969 8.828125 11.976562 L 8.359375 13.613281 C 8.339844 13.675781 8.34375 13.738281 8.359375 13.792969 L 8.828125 12.15625 C 8.84375 12.097656 8.871094 12.050781 8.910156 12.011719 L 10.4375 13.542969 C 10.480469 13.523438 10.519531 13.5 10.546875 13.46875 Z M 8.910156 11.832031 "/>
<path style=" stroke:none;fill-rule:nonzero;fill:rgb(0%,0%,0%);fill-opacity:0.235294;" d="M 13.792969 9.867188 C 13.777344 10.007812 13.714844 10.144531 13.605469 10.253906 L 11.265625 12.589844 L 10.914062 12.941406 L 9.359375 11.386719 L 9.277344 11.46875 L 10.914062 13.105469 L 11.265625 12.757812 L 13.605469 10.417969 C 13.753906 10.265625 13.820312 10.0625 13.792969 9.867188 Z M 10.464844 13.359375 C 10.453125 13.367188 10.4375 13.371094 10.421875 13.375 L 8.785156 13.84375 C 8.59375 13.898438 8.417969 13.78125 8.371094 13.609375 C 8.308594 13.855469 8.539062 14.082031 8.785156 14.011719 L 10.421875 13.542969 C 10.476562 13.527344 10.527344 13.496094 10.5625 13.457031 Z M 10.464844 13.359375 "/>
<path style="fill:none;stroke-width:3;stroke-linecap:round;stroke-linejoin:round;stroke:rgb(12.941177%,12.941177%,12.941177%);stroke-opacity:1;stroke-miterlimit:4;" d="M 412.835576 65.973168 C 404.586364 57.598968 391.212641 57.598968 382.963429 65.973168 L 308.095578 140.841019 L 296.846653 151.964957 L 349.216651 204.334956 L 360.465577 193.211018 L 435.333428 118.343167 C 443.58264 110.093955 443.58264 96.720232 435.333428 88.346032 Z M 412.835576 65.973168 " transform="matrix(0.031253,0,0,0.031253,0,6.719392)"/>
<path style="fill:none;stroke-width:3;stroke-linecap:round;stroke-linejoin:round;stroke:rgb(12.941177%,12.941177%,12.941177%);stroke-opacity:1;stroke-miterlimit:4;" d="M 285.597727 163.213882 C 284.472834 164.463763 283.47293 165.96362 282.972977 167.838441 L 267.97441 220.20844 C 265.724625 228.207676 273.09892 235.581972 281.098156 233.332186 L 333.468155 218.333619 C 335.217988 217.833666 336.842833 216.833762 337.967726 215.583881 Z M 285.597727 163.213882 " transform="matrix(0.031253,0,0,0.031253,0,6.719392)"/>
</g>
</svg>
